X:26
T:Polka des Landes
C:trad
A:Landes
O:France
M:2/4
L:1/8
Q:1/4=140
K:C
cB/2A/2 GA/2B/2|ce ed/2e/2|fd dc/2d/2|ec c2|
cB/2A/2 GA/2B/2|ce ed/2e/2|fd de/2d/2|ce c2:|
|:eg ea|ge ed/2e/2|fd dc/2d/2|ec c2|
eg ea|ge ed/2e/2|fd de/2d/2|ce c2:|
